icon/hi/clipboard-outline.svg

<svg viewBox="0 0 24 24" fill="none" xmlns="http://www.w3.org/2000/svg" height="1em" width="1em">
  <path d="M9 5H7C5.89543 5 5 5.89543 5 7V19C5 20.1046 5.89543 21 7 21H17C18.1046 21 19 20.1046 19 19V7C19 5.89543 18.1046 5 17 5H15M9 5C9 6.10457 9.89543 7 11 7H13C14.1046 7 15 6.10457 15 5M9 5C9 3.89543 9.89543 3 11 3H13C14.1046 3 15 3.89543 15 5" stroke="#4A5568" stroke-width="2" stroke-linecap="round" stroke-linejoin="round"/>
</svg>

<svg width="24" height="24" fill="none" xmlns="http://www.w3.org/2000/svg"><path d="M9 5H7a2 2 0 0 0-2 2v12a2 2 0 0 0 2 2h10a2 2 0 0 0 2-2V7a2 2 0 0 0-2-2h-2M9 5a2 2 0 0 0 2 2h2a2 2 0 0 0 2-2M9 5a2 2 0 0 1 2-2h2a2 2 0 0 1 2 2" stroke="#4A5568" stroke-width="2" stroke-linecap="round" stroke-linejoin="round"/></svg>
